X: 4
T: King George IV
R: strathspey
M: 4/4
L: 1/8
K: Ador
|:.A2.A2A3B|cBAB ~e3d |~A3d ~e3A|dedB BAGB|.A2Ad ~e3A|Bc d2 ~e3d|AB d2 {f}g2 e|dedB BAGB|.A2Ad ~e3A|Bc d2 ~e3d |~A3d ~e3A|dedB BAGB|.A2Ad ~e3A|Bc d2 ~e3d|AB d2 {f}g2 e|dedB BAG2|e4 A3B|cBAB(3efe d2|e4 a3f|g2 agfedf|e2 ee A3B|cBAB (3efe d2|B2 d2 ~g2 e|dedB BAGB|e2 e2 {B}A3B|cBAB (3efe d2|{d}e2e2 {b}a3f|g2 {b}agfedB|a3 f ~g3 e |~f3d (3BcB A2 |B2 d2~g3 e|dedB BAGB:||


Tune 1114	Setting 23733

